X:230
%%etbk:tnset id:72,pos:1,rep:3x,ant:
%%etbk:wsite http://www.thesession.org/tunes/display/2200
%%etbk:pldat 2016-07-21T19:09,2016-05-26T18:19,2016-03-22T18:17,2015-07-25T15:09,2015-04-23T18:46,2015-04-21T15:20,2015-03-24T17:16,2015-02-14T14:49,2015-02-04T17:28,2015-02-03T16:38,2015-02-02T19:11,2014-12-31T14:52,2014-12-17T18:26,2014-12-01T19:18,2014-09-24T16:40,2014-05-17T14:38,2014-04-08T17:38,2014-03-22T15:24,2014-02-27T18:55,2014-02-16T13:34,2014-02-09T11:42,2014-02-07T16:44,2013-10-24T18:13,2013-10-21T17:58,2013-10-20T13:53,2013-10-07T18:38,2013-09-12T18:27,2013-09-11T18:59,2013-08-29T16:25,2013-08-28T17:18,2013-08-26T17:53
T: Old Man Dillon
Z: Piano Box Version by Martin Fleischmann
H: Created 2013-02-19 /  Last Modified 2013-02-19
M: 6/8
L: 1/8
R: jig
S: Terry Bingham: Traditional Irish Music From Doolin Co. Clare
K: Ador
|: "am"!1!E!3!A!1!A !1!AB!4!d | !5!edB !3!c2A | "G"{d}!2!BGG !4!dGG | !2!Bdc !2!B!1!A!2!G |
"am"!1!E!3!A!1!A !1!AB!4!d | !2!ede !5!a2g | "em"!2!e!1!d!3!c !2!Bcd |1 "am"!5!e!3!c!1!A A2!2!G:|2 "am"!5!e!3!c!1!A A3||
"G"!4!gef g2a | !4!gef !4!g!1!d!3!c | !2!BGG !4!dGG | !2!B!4!dc !2!B!1!A!1!G |
 !4!gef g2a | gef !4!g!1!dd | !2!e!1!d!3!c !2!Bcd | "am"!5!e!3!c!1!A A3 |
"G"!4!gef g2a | !4!gef !4!g!1!d!3!c | !2!BGG !4!dGG | !2!Bdc B!1!A!2!G |
"am" !1!E!3!A!1!A !1!AB!4!d | !2!ede !5!a2g | "em"!2!e!1!d!3!c !2!Bcd | "am"!5!e!3!c!1!A A3||


